X:2
T:Road to Skye
Z:Wil Macaulay Dec 1999
R:Jig
A:Cape Breton
L:1/8
M:6/8
K:A
E |AGF ECE | Ace f2e| acc {d}cBc | dFF F2E |
AGF ECE | Ace f2e | aec BAB | {e}cAA A2 :|
B |Ace Ace Ace dcB | Ace fga | {fa}fee efg|
a3 g3 | f3 e2c | dcd Bed | cAA A2 :|

